; generated by SuperSlicer 2.4 on 2023-01-18 at 08:53:13 UTC

; 

; external perimeters extrusion width = 0.43mm
; perimeters extrusion width = 0.48mm
; infill extrusion width = 0.46mm
; solid infill extrusion width = 0.48mm
; top infill extrusion width = 0.46mm
; first layer extrusion width = 0.58mm

; object:{"name":"cube","id":"cube.stl id:0 copy 0","object_center":[110.000000,110.000000,0.000000],"boundingbox_center":[110.000000,110.000000,10.000000],"boundingbox_size":[20.000000,20.000000,20.000000]}
; Total objects to print: 1
M486 T1
; plater:{"center":[110.000000,110.000000,0.000000],"boundingbox_center":[110.000000,110.000000,10.000000],"boundingbox_size":[20.000000,20.000000,20.000000]}

;TYPE:Custom
G90 ; use absolute coordinates
M83 ; extruder relative mode
M140 S60 ; set final bed temp
M104 S150 ; set temporary nozzle temp to prevent oozing during homing and auto bed leveling
G4 S10 ; allow partial nozzle warmup
G28 ; home all axis
G1 Z50 F240
G1 X2 Y10 F3000
M104 S205 ; set final nozzle temp
M190 S60 ; wait for bed temp to stabilize
M109 S205 ; wait for nozzle temp to stabilize
G1 Z0.28 F240
G92 E0
G1 Y140 E10 F1500 ; prime the nozzle
G1 X2.3 F5000
G92 E0
G1 Y10 E10 F1200 ; prime the nozzle
G92 E0
M107
G21 ; set units to millimeters
G90 ; use absolute coordinates
M82 ; use absolute distances for extrusion
G92 E0
; Filament gcode
;_TOOLCHANGE 0
M107
;LAYER_CHANGE
;Z:0.2
;HEIGHT:0.2
;BEFORE_LAYER_CHANGE
;0.2


G1 E-5 F3600
G1 Z0.2 F9000
;AFTER_LAYER_CHANGE
;0.2
G92 E0
; printing object cube.stl id:0 copy 0
M486 S0
M204 S500
G1 X100.927 Y100.927
G1 E5 F2400
;TYPE:Internal perimeter
;WIDTH:0.58
G1 F1200
G1 X119.073 Y100.927 E5.81036
G1 X119.073 Y119.073 E6.62073
G1 X100.927 Y119.073 E7.43109
G1 X100.927 Y100.987 E8.23877
G1 X100.39 Y100.39 F9000
;TYPE:External perimeter
G1 F1200
G1 X119.61 Y100.39 E9.09711
G1 X119.61 Y119.61 E9.95544
G1 X100.39 Y119.61 E10.81378
G1 X100.39 Y100.45 E11.66943
;WIPE_START
G1 X100.736 Y100.59 F9000
;WIPE_END
G92 E0
G1 E-3.5 F3600
;WIPE_START
G1 F7200
G1 X103.736 Y100.59 E-4.925
;WIPE_END
G1 E-5 F3600
; acceleration to travel
M204 S1500
G1 X117.26 Y102.001 F9000
; decel to extrusion
M204 S500
G1 X118.912 Y102.174
; end travel
G1 E0 F2400
;TYPE:Solid infill
;WIDTH:0.576095
G1 F1200
G1 X118.057 Y101.319 E0.05362
G1 X117.298 Y101.319 E0.08731
G1 X118.681 Y102.702 E0.17409
G1 X118.681 Y103.462 E0.20778
G1 X116.538 Y101.319 E0.34221
G1 X115.778 Y101.319 E0.3759
G1 X118.681 Y104.222 E0.55797
G1 X118.681 Y104.981 E0.59166
G1 X115.019 Y101.319 E0.82138
G1 X114.259 Y101.319 E0.85507
G1 X118.681 Y105.741 E1.13244
G1 X118.681 Y106.5 E1.16613
G1 X113.5 Y101.319 E1.49114
G1 X112.74 Y101.319 E1.52484
G1 X118.681 Y107.26 E1.8975
G1 X118.681 Y108.019 E1.93119
G1 X111.981 Y101.319 E2.3515
G1 X111.221 Y101.319 E2.38519
G1 X118.681 Y108.779 E2.85314
G1 X118.681 Y109.538 E2.88683
G1 X110.462 Y101.319 E3.40244
G1 X109.702 Y101.319 E3.43613
G1 X118.681 Y110.298 E3.99938
G1 X118.681 Y111.057 E4.03307
G1 X108.943 Y101.319 E4.64397
G1 X108.183 Y101.319 E4.67766
G1 X118.681 Y111.817 E5.3362
G1 X118.681 Y112.577 E5.36989
G1 X107.423 Y101.319 E6.07608
G1 X106.664 Y101.319 E6.10978
G1 X118.681 Y113.336 E6.86361
G1 X118.681 Y114.096 E6.8973
G1 X105.904 Y101.319 E7.69879
G1 X105.145 Y101.319 E7.73248
G1 X118.681 Y114.855 E8.58161
G1 X118.681 Y115.615 E8.6153
G1 X104.385 Y101.319 E9.51208
G1 X103.626 Y101.319 E9.54578
G1 X118.681 Y116.374 E10.4902
G1 X118.681 Y117.134 E10.52389
G1 X102.866 Y101.319 E11.51597
G1 X102.107 Y101.319 E11.54966
G1 X118.681 Y117.893 E12.58938
G1 X118.681 Y118.653 E12.62307
G1 X101.347 Y101.319 E13.71044
G1 X101.319 Y101.319 E13.71168
G1 X101.319 Y102.051 E13.74413
G1 X117.949 Y118.681 E14.78736
G1 X117.19 Y118.681 E14.82105
G1 X101.319 Y102.81 E15.81664
G1 X101.319 Y103.57 E15.85033
G1 X116.43 Y118.681 E16.79827
G1 X115.671 Y118.681 E16.83196
G1 X101.319 Y104.329 E17.73225
G1 X101.319 Y105.089 E17.76594
G1 X114.911 Y118.681 E18.61858
G1 X114.152 Y118.681 E18.65227
G1 X101.319 Y105.848 E19.45727
G1 X101.319 Y106.608 E19.49096
G1 X113.392 Y118.681 E20.24831
G1 X112.633 Y118.681 E20.282
G1 X101.319 Y107.367 E20.9917
G1 X101.319 Y108.127 E21.0254
G1 X111.873 Y118.681 E21.68745
G1 X111.113 Y118.681 E21.72114
G1 X101.319 Y108.887 E22.33555
G1 X101.319 Y109.646 E22.36924
G1 X110.354 Y118.681 E22.936
G1 X109.594 Y118.681 E22.96969
G1 X101.319 Y110.406 E23.4888
G1 X101.319 Y111.165 E23.5225
G1 X108.835 Y118.681 E23.99396
G1 X108.075 Y118.681 E24.02765
G1 X101.319 Y111.925 E24.45147
G1 X101.319 Y112.684 E24.48516
G1 X107.316 Y118.681 E24.86134
G1 X106.556 Y118.681 E24.89503
G1 X101.319 Y113.444 E25.22355
G1 X101.319 Y114.203 E25.25724
G1 X105.797 Y118.681 E25.53812
G1 X105.037 Y118.681 E25.57181
G1 X101.319 Y114.963 E25.80504
G1 X101.319 Y115.722 E25.83874
G1 X104.278 Y118.681 E26.02432
G1 X103.518 Y118.681 E26.05801
G1 X101.319 Y116.482 E26.19595
G1 X101.319 Y117.242 E26.22964
G1 X102.758 Y118.681 E26.31993
G1 X101.999 Y118.681 E26.35362
G1 X101.088 Y117.77 E26.41075
M106 S84.15
;LAYER_CHANGE
;Z:0.48
;HEIGHT:0.28
;BEFORE_LAYER_CHANGE
;0.48


G92 E0
G1 E-3.5 F3600
;WIPE_START
G1 F7200
G1 X101.999 Y118.681 E-4.11176
G1 X102.758 Y118.681 E-4.47255
G1 X102.085 Y118.007 E-4.925
;WIPE_END
G1 E-5 F3600
; stop printing object cube.stl id:0 copy 0
M486 S-1
G1 Z0.48 F9000
;AFTER_LAYER_CHANGE
;0.48
M104 S200 ; set temperature
G92 E0
; printing object cube.stl id:0 copy 0
M486 S0
G1 X100.612 Y119.388
G1 E5 F2400
;TYPE:Internal perimeter
;WIDTH:0.48
G1 X100.612 Y100.612 E5.91782
G1 X119.388 Y100.612 E6.83564
G1 X119.388 Y119.388 E7.75346
G1 X100.672 Y119.388 E8.66834
G1 X100.216 Y119.784 F9000
;TYPE:External perimeter
;WIDTH:0.432
G1 F1500
G1 X100.216 Y100.216 E9.51553
G1 X119.784 Y100.216 E10.36271
G1 X119.784 Y119.784 E11.2099
G1 X100.276 Y119.784 E12.05448
;WIPE_START
G1 X100.416 Y119.438 F9000
;WIPE_END
G92 E0
G1 E-3.5 F3600
;WIPE_START
G1 F7200
G1 X100.416 Y116.438 E-4.925
;WIPE_END
G1 E-5 F3600
; acceleration to travel
M204 S1500
G1 X116.354 Y118.939 F9000
; decel to extrusion
M204 S500
G1 X118.413 Y119.262
; end travel
G1 E0 F2400
;TYPE:Solid infill
;WIDTH:0.479656
G1 X119.082 Y118.594 E0.04617
G1 X119.082 Y118 E0.07517
G1 X118 Y119.082 E0.14989
G1 X117.406 Y119.082 E0.17889
G1 X119.082 Y117.406 E0.29463
G1 X119.082 Y116.812 E0.32364
G1 X116.812 Y119.082 E0.4804
G1 X116.218 Y119.082 E0.50941
G1 X119.082 Y116.218 E0.70719
G1 X119.082 Y115.625 E0.7362
G1 X115.625 Y119.082 E0.97501
G1 X115.031 Y119.082 E1.00401
G1 X119.082 Y115.031 E1.28384
G1 X119.082 Y114.437 E1.31285
G1 X114.437 Y119.082 E1.6337
G1 X113.843 Y119.082 E1.66271
G1 X119.082 Y113.843 E2.02458
G1 X119.082 Y113.249 E2.05359
G1 X113.249 Y119.082 E2.45649
G1 X112.655 Y119.082 E2.4855
G1 X119.082 Y112.655 E2.92942
G1 X119.082 Y112.062 E2.95842
G1 X112.062 Y119.082 E3.44337
G1 X111.468 Y119.082 E3.47238
G1 X119.082 Y111.468 E3.99834
G1 X119.082 Y110.874 E4.02735
G1 X110.874 Y119.082 E4.59434
G1 X110.28 Y119.082 E4.62335
G1 X119.082 Y110.28 E5.23136
G1 X119.082 Y109.686 E5.26037
G1 X109.686 Y119.082 E5.9094
G1 X109.092 Y119.082 E5.93841
G1 X119.082 Y109.092 E6.62847
G1 X119.082 Y108.499 E6.65747
G1 X108.498 Y119.082 E7.38855
G1 X107.905 Y119.082 E7.41756
G1 X119.082 Y107.905 E8.18966
G1 X119.082 Y107.311 E8.21867
G1 X107.311 Y119.082 E9.0318
G1 X106.717 Y119.082 E9.06081
G1 X119.082 Y106.717 E9.91495
G1 X119.082 Y106.123 E9.94396
G1 X106.123 Y119.082 E10.83913
G1 X105.529 Y119.082 E10.86814
G1 X119.082 Y105.529 E11.80434
G1 X119.082 Y104.935 E11.83334
G1 X104.935 Y119.082 E12.81056
G1 X104.342 Y119.082 E12.83957
G1 X119.082 Y104.342 E13.85781
G1 X119.082 Y103.748 E13.88682
G1 X103.748 Y119.082 E14.94608
G1 X103.154 Y119.082 E14.97509
G1 X119.082 Y103.154 E16.07538
G1 X119.082 Y102.56 E16.10438
G1 X102.56 Y119.082 E17.24569
G1 X101.966 Y119.082 E17.2747
G1 X119.082 Y101.966 E18.45703
G1 X119.082 Y101.372 E18.48604
G1 X101.372 Y119.082 E19.70939
G1 X100.918 Y119.082 E19.73157
G1 X100.918 Y118.942 E19.7384
G1 X118.942 Y100.918 E20.98345
G1 X118.348 Y100.918 E21.01246
G1 X100.918 Y118.348 E22.21648
G1 X100.918 Y117.754 E22.24549
G1 X117.754 Y100.918 E23.40849
G1 X117.16 Y100.918 E23.4375
G1 X100.918 Y117.16 E24.55948
G1 X100.918 Y116.566 E24.58849
G1 X116.566 Y100.918 E25.66945
G1 X115.972 Y100.918 E25.69845
G1 X100.918 Y115.972 E26.73839
G1 X100.918 Y115.379 E26.76739
G1 X115.379 Y100.918 E27.76631
G1 X114.785 Y100.918 E27.79531
G1 X100.918 Y114.785 E28.7532
G1 X100.918 Y114.191 E28.78221
G1 X114.191 Y100.918 E29.69907
G1 X113.597 Y100.918 E29.72808
G1 X100.918 Y113.597 E30.60392
G1 X100.918 Y113.003 E30.63293
G1 X113.003 Y100.918 E31.46775
G1 X112.409 Y100.918 E31.49676
G1 X100.918 Y112.409 E32.29056
G1 X100.918 Y111.816 E32.31956
G1 X111.816 Y100.918 E33.07234
G1 X111.222 Y100.918 E33.10135
G1 X100.918 Y111.222 E33.8131
G1 X100.918 Y110.628 E33.8421
G1 X110.628 Y100.918 E34.51283
G1 X110.034 Y100.918 E34.54184
G1 X100.918 Y110.034 E35.17154
G1 X100.918 Y109.44 E35.20055
G1 X109.44 Y100.918 E35.78923
G1 X108.846 Y100.918 E35.81824
G1 X100.918 Y108.846 E36.3659
G1 X100.918 Y108.252 E36.39491
G1 X108.252 Y100.918 E36.90155
G1 X107.659 Y100.918 E36.93055
G1 X100.918 Y107.659 E37.39617
G1 X100.918 Y107.065 E37.42518
G1 X107.065 Y100.918 E37.84977
G1 X106.471 Y100.918 E37.87877
G1 X100.918 Y106.471 E38.26234
G1 X100.918 Y105.877 E38.29135
G1 X105.877 Y100.918 E38.63389
G1 X105.283 Y100.918 E38.6629
G1 X100.918 Y105.283 E38.96442
G1 X100.918 Y104.689 E38.99343
G1 X104.689 Y100.918 E39.25393
G1 X104.096 Y100.918 E39.28294
G1 X100.918 Y104.096 E39.50242
G1 X100.918 Y103.502 E39.53142
G1 X103.502 Y100.918 E39.70988
G1 X102.908 Y100.918 E39.73888
G1 X100.918 Y102.908 E39.87632
G1 X100.918 Y102.314 E39.90532
G1 X102.314 Y100.918 E40.00173
G1 X101.72 Y100.918 E40.03074
G1 X100.918 Y101.72 E40.08612
G1 X100.918 Y101.126 E40.11513
G1 X101.307 Y100.738 E40.14197
M106 S170.85
;LAYER_CHANGE
;Z:0.76
;HEIGHT:0.28
;BEFORE_LAYER_CHANGE
;0.76


G92 E0
G1 E-3.5 F3600
;WIPE_START
G1 F7200
G1 X100.918 Y101.126 E-3.76095
G1 X100.918 Y101.72 E-4.04303
G1 X101.72 Y100.918 E-4.58161
G1 X102.314 Y100.918 E-4.86368
G1 X102.223 Y101.01 E-4.925
;WIPE_END
G1 E-5 F3600
; stop printing object cube.stl id:0 copy 0
M486 S-1
G1 Z0.76 F9000
;AFTER_LAYER_CHANGE
;0.76
; printing object cube.stl id:0 copy 0
M486 S0
G1 X100.612 Y100.612
G1 E0 F2400
;TYPE:Internal perimeter
;WIDTH:0.48
G1 X119.388 Y100.612 E0.91782
G1 X119.388 Y119.388 E1.83564
G1 X100.612 Y119.388 E2.75346
G1 X100.612 Y100.672 E3.66834
G1 X100.216 Y100.216 F9000
;TYPE:External perimeter
;WIDTH:0.432
G1 F1500
G1 X119.784 Y100.216 E4.51553
G1 X119.784 Y119.784 E5.36271
G1 X100.216 Y119.784 E6.2099
G1 X100.216 Y100.276 E7.05448
;WIPE_START
G1 X100.562 Y100.416 F9000
;WIPE_END
G92 E0
G1 E-3.5 F3600
;WIPE_START
G1 F7200
G1 X103.562 Y100.416 E-4.925
;WIPE_END
G1 E-5 F3600
; acceleration to travel
M204 S1500
G1 X101.061 Y116.602 F9000
; decel to extrusion
M204 S500
G1 X100.738 Y118.693
; end travel
G1 E0 F2400
;TYPE:Solid infill
;WIDTH:0.479656
G1 X101.126 Y119.082 E0.02684
G1 X101.72 Y119.082 E0.05584
G1 X100.918 Y118.28 E0.11123
G1 X100.918 Y117.686 E0.14024
G1 X102.314 Y119.082 E0.23664
G1 X102.908 Y119.082 E0.26565
G1 X100.918 Y117.092 E0.40308
G1 X100.918 Y116.498 E0.43209
G1 X103.502 Y119.082 E0.61054
G1 X104.096 Y119.082 E0.63955
G1 X100.918 Y115.904 E0.85903
G1 X100.918 Y115.311 E0.88803
G1 X104.689 Y119.082 E1.14853
G1 X105.283 Y119.082 E1.17754
G1 X100.918 Y114.717 E1.47906
G1 X100.918 Y114.123 E1.50807
G1 X105.877 Y119.082 E1.85062
G1 X106.471 Y119.082 E1.87962
G1 X100.918 Y113.529 E2.26319
G1 X100.918 Y112.935 E2.2922
G1 X107.065 Y119.082 E2.71679
G1 X107.659 Y119.082 E2.7458
G1 X100.918 Y112.341 E3.21141
G1 X100.918 Y111.748 E3.24042
G1 X108.252 Y119.082 E3.74706
G1 X108.846 Y119.082 E3.77606
G1 X100.918 Y111.154 E4.32372
G1 X100.918 Y110.56 E4.35273
G1 X109.44 Y119.082 E4.94141
G1 X110.034 Y119.082 E4.97042
G1 X100.918 Y109.966 E5.60013
G1 X100.918 Y109.372 E5.62913
G1 X110.628 Y119.082 E6.29986
G1 X111.222 Y119.082 E6.32887
G1 X100.918 Y108.778 E7.04062
G1 X100.918 Y108.184 E7.06963
G1 X111.816 Y119.082 E7.8224
G1 X112.409 Y119.082 E7.85141
G1 X100.918 Y107.591 E8.64521
G1 X100.918 Y106.997 E8.67421
G1 X113.003 Y119.082 E9.50903
G1 X113.597 Y119.082 E9.53804
G1 X100.918 Y106.403 E10.41388
G1 X100.918 Y105.809 E10.44289
G1 X114.191 Y119.082 E11.35976
G1 X114.785 Y119.082 E11.38876
G1 X100.918 Y105.215 E12.34665
G1 X100.918 Y104.621 E12.37566
G1 X115.379 Y119.082 E13.37457
G1 X115.972 Y119.082 E13.40358
G1 X100.918 Y104.028 E14.44351
G1 X100.918 Y103.434 E14.47252
G1 X116.566 Y119.082 E15.55348
G1 X117.16 Y119.082 E15.58248
G1 X100.918 Y102.84 E16.70446
G1 X100.918 Y102.246 E16.73347
G1 X117.754 Y119.082 E17.89647
G1 X118.348 Y119.082 E17.92548
G1 X100.918 Y101.652 E19.12951
G1 X100.918 Y101.058 E19.15852
G1 X118.942 Y119.082 E20.40356
G1 X119.082 Y119.082 E20.4104
G1 X119.082 Y118.628 E20.43257
G1 X101.372 Y100.918 E21.65593
G1 X101.966 Y100.918 E21.68493
G1 X119.082 Y118.034 E22.86727
G1 X119.082 Y117.44 E22.89627
G1 X102.56 Y100.918 E24.03758
G1 X103.154 Y100.918 E24.06659
G1 X119.082 Y116.846 E25.16688
G1 X119.082 Y116.252 E25.19588
G1 X103.748 Y100.918 E26.25515
G1 X104.342 Y100.918 E26.28416
G1 X119.082 Y115.658 E27.3024
G1 X119.082 Y115.065 E27.3314
G1 X104.935 Y100.918 E28.30862
G1 X105.529 Y100.918 E28.33763
G1 X119.082 Y114.471 E29.27382
G1 X119.082 Y113.877 E29.30283
G1 X106.123 Y100.918 E30.198
G1 X106.717 Y100.918 E30.22701
G1 X119.082 Y113.283 E31.08116
G1 X119.082 Y112.689 E31.11017
G1 X107.311 Y100.918 E31.92329
G1 X107.905 Y100.918 E31.9523
G1 X119.082 Y112.095 E32.72441
G1 X119.082 Y111.502 E32.75341
G1 X108.498 Y100.918 E33.48449
G1 X109.092 Y100.918 E33.5135
G1 X119.082 Y110.908 E34.20356
G1 X119.082 Y110.314 E34.23257
G1 X109.686 Y100.918 E34.8816
G1 X110.28 Y100.918 E34.91061
G1 X119.082 Y109.72 E35.51862
G1 X119.082 Y109.126 E35.54763
G1 X110.874 Y100.918 E36.11462
G1 X111.468 Y100.918 E36.14362
G1 X119.082 Y108.532 E36.66959
G1 X119.082 Y107.938 E36.6986
G1 X112.062 Y100.918 E37.18354
G1 X112.655 Y100.918 E37.21255
G1 X119.082 Y107.345 E37.65647
G1 X119.082 Y106.751 E37.68548
G1 X113.249 Y100.918 E38.08838
G1 X113.843 Y100.918 E38.11738
G1 X119.082 Y106.157 E38.47926
G1 X119.082 Y105.563 E38.50827
G1 X114.437 Y100.918 E38.82912
G1 X115.031 Y100.918 E38.85812
G1 X119.082 Y104.969 E39.13795
G1 X119.082 Y104.375 E39.16696
G1 X115.625 Y100.918 E39.40577
G1 X116.218 Y100.918 E39.43478
G1 X119.082 Y103.782 E39.63256
G1 X119.082 Y103.188 E39.66157
G1 X116.812 Y100.918 E39.81833
G1 X117.406 Y100.918 E39.84733
G1 X119.082 Y102.594 E39.96307
G1 X119.082 Y102 E39.99208
G1 X118 Y100.918 E40.06679
G1 X118.594 Y100.918 E40.0958
G1 X119.262 Y101.587 E40.14197
M106 S255
;LAYER_CHANGE
;Z:1.04
;HEIGHT:0.28
;BEFORE_LAYER_CHANGE
;1.04


G92 E0
G1 E-3.5 F3600
;WIPE_START
G1 F7200
G1 X118.594 Y100.918 E-3.94892
G1 X118 Y100.918 E-4.231
G1 X119.033 Y101.952 E-4.925
;WIPE_END
G1 E-5 F3600
; stop printing object cube.stl id:0 copy 0
M486 S-1
G1 Z1.04 F9000
;AFTER_LAYER_CHANGE
;1.04
; printing object cube.stl id:0 copy 0
M486 S0
G1 X119.388 Y100.612
G1 E0 F2400
;TYPE:Internal perimeter
;WIDTH:0.48
G1 F983
G1 X119.388 Y119.388 E0.91782
G1 X100.612 Y119.388 E1.83564
G1 X100.612 Y100.612 E2.75346
G1 X119.328 Y100.612 E3.66834
G1 X119.784 Y100.216 F9000
;TYPE:External perimeter
;WIDTH:0.432
G1 F983
G1 X119.784 Y119.784 E4.51553
G1 X100.216 Y119.784 E5.36271
G1 X100.216 Y100.216 E6.2099
G1 X119.724 Y100.216 E7.05448
;WIPE_START
G1 X119.584 Y100.562 F9000
;WIPE_END
;LAYER_CHANGE
;Z:1.32
;HEIGHT:0.28
;BEFORE_LAYER_CHANGE
;1.32


G92 E0
G1 E-3.5 F3600
;WIPE_START
G1 F7200
G1 X119.584 Y103.562 E-4.925
;WIPE_END
G1 E-5 F3600
; stop printing object cube.stl id:0 copy 0
M486 S-1
G1 Z1.32 F9000
;AFTER_LAYER_CHANGE
;1.32
G92 E0
; printing object cube.stl id:0 copy 0
M486 S0
; acceleration to travel
M204 S1500
G1 X119.411 Y100.949
; decel to extrusion
M204 S500
G1 X119.388 Y100.612
; end travel
G1 E5 F2400
;TYPE:Internal perimeter
;WIDTH:0.48
G1 F900
G1 X119.388 Y119.388 E5.91782
